!!!OTL: DER KUCKUK AUF DEM BIRNBAUM SASS
!!!ARE: Europa, Mitteleuropa, Deutschland, Hessen, Darmstadt, Offenthal
!!!SCT: E0596
!!!YEM: Copyright 1995, estate of Helmut Schaffrath.
**kern
*ICvox
*Ivox
*M3/8
*k[f#]
*G:
{8d
=1
4g
8b
=2
4g
8b
=3
8.dd
16ee
8dd
=4
4b
8dd
=5
4b}
{16g
16b
=6
8dd
8dd
16ee
16dd
=7
16dd
16cc
8cc}
{8cc
=8
8.b
16cc
16dd
16b
=9
4a}
{8a
=10
8b
8b
8cc
=11
8dd
8dd}
{16dd
16cc
=12
8b
8b
8a
=13
4g}
==
!!!AGN: Liebes - Lied
!!!ONB: ESAC (Essen Associative Code) Database: ERK1
!!!AMT: simple triple
!!!AIN: vox
!!!EED: Helmut Schaffrath
!!!EEV: 1.0
*-
